X:305
T: Tansey's
S: "ITM Session Tunes vol 3" ("Sully")
Z: B.Black
M: 4/4
L: 1/8
R: reel
K: G
G2 AG EGDE|G2 BG AE E2|G2 AG EGAB|1 cedc BGAF :|2\
cedc BG G2||
gedg edBA|B3G AE E2|g3d edBA|(3B^cd ge BG G2|
eg g2 eB B2|dBAB GE E2|DB,DE GABc|dedc BGAF||\
"last time" dedc BG G2||
